X:668
T: "Das Koeniglein"
N: Z1349
O: Europa, Mitteleuropa, Deutschland, Niederrhein
R: Zech -, Schalks - Lied
M: 6/8
L: 1/8
K: Bb
F | ddcddc | B2BB2
B | cdeFGA | B2BB2
F | ddcddc | B2BB2
B | cdeFGA | B2z3
B | d2ddcB | ffff2z |
dcBdcB | c2cc2
B | d2ddcB | ffff2
d | cdeFGA | B2z3

@@@ Tune index: 10426
